X: 25703
T: Mary And Danny's
R: strathspey
M: 4/4
K: Cmajor
e|g>ag>e d>cd<e|g<cg>e g<cc>e|(3fga (3gfe d>cd<e|c>AG>E G<CC:|
F|E<GG>E F>Ac<A|G<EE>G F>DD<F|E<GG>E F>Ac<A|(3GFE (3FED E<CC>F|
E<GG>E F>Ac<A|G<ce>c e>dd<e|g>ag>e d>cd<e|c>AG>E G<CC||

